raw-svg/angle-double-left.svg

<svg viewBox="0 0 24 24" xmlns="http://www.w3.org/2000/svg"><path d="m11 16.25a.74.74 0 0 1 -.53-.22l-3.47-3.5a.75.75 0 0 1 0-1.06l3.47-3.47a.75.75 0 0 1 1.06 1l-3 3 3 3a.75.75 0 0 1 0 1.06.74.74 0 0 1 -.53.19z"/><path d="m16.5 16.25a.74.74 0 0 1 -.5-.25l-3.5-3.5a.75.75 0 0 1 0-1.06l3.5-3.44a.75.75 0 0 1 1 1l-3 3 3 3a.75.75 0 0 1 0 1 .74.74 0 0 1 -.5.25z"/></svg>

<svg xmlns="http://www.w3.org/2000/svg" viewBox="0 0 24 24"><g id="angle-double-left"><path d="M11,16.25a.74.74,0,0,1-.53-.22L7,12.53a.75.75,0,0,1,0-1.06L10.47,8A.75.75,0,0,1,11.53,9l-3,3,3,3a.75.75,0,0,1,0,1.06A.74.74,0,0,1,11,16.25Z"/><path d="M16.5,16.25A.74.74,0,0,1,16,16l-3.5-3.5a.75.75,0,0,1,0-1.06L16,8A.75.75,0,0,1,17,9l-3,3,3,3A.75.75,0,0,1,17,16,.74.74,0,0,1,16.5,16.25Z"/></g></svg>
